icons/puzzle.svg

<svg width="24" height="24" viewBox="0 0 24 24" fill="none" xmlns="http://www.w3.org/2000/svg">
<path d="M10 3C8.89543 3 8 3.89543 8 5V7H3V12H5C6.10457 12 7 12.8954 7 14C7 15.1046 6.10457 16 5 16H3V21H8V19C8 17.8954 8.89543 17 10 17C11.1046 17 12 17.8954 12 19V21H17V16H19C20.1046 16 21 15.1046 21 14C21 12.8954 20.1046 12 19 12H17V7H12V5C12 3.89543 11.1046 3 10 3Z" stroke="#1E293B" stroke-width="2" stroke-linecap="round" stroke-linejoin="round"/>
</svg>

<svg
  width="24"
  height="24"
  viewBox="0 0 24 24"
  xmlns="http://www.w3.org/2000/svg"
  fill="none"
  stroke="currentColor"
  stroke-width="2"
  stroke-linecap="round"
  stroke-linejoin="round"
>
  <path d="M10 3a2 2 0 0 0-2 2v2H3v5h2a2 2 0 1 1 0 4H3v5h5v-2a2 2 0 1 1 4 0v2h5v-5h2a2 2 0 1 0 0-4h-2V7h-5V5a2 2 0 0 0-2-2z" />
</svg>
